public/library/paradigm-icon-dark.svg

<svg width="94" height="108" viewBox="0 0 94 108" fill="none" xmlns="http://www.w3.org/2000/svg"><path d="M94 33.2314L36.1538 0L28.9231 4.15692V12.4628L21.6923 8.30585L14.4615 12.4628V20.7686L7.23077 16.6117L0 20.7686V87.2314L7.23077 91.3883L14.4615 87.2314V95.5372L21.6923 99.6942L28.9231 95.5372V103.843L36.1538 108L94 74.7686V66.4628L86.7692 62.3059L94 58.1489V49.8431L86.7692 45.6862L94 41.5292V33.2314ZM14.4615 78.9255L7.23077 83.0825V24.9255L14.4615 29.0825V78.9255ZM36.1538 83.0745V74.7686L65.0769 58.1569L72.3077 62.3138L36.1538 83.0745ZM57.8462 54L36.1538 66.4628V41.5372L57.8462 54ZM65.0769 49.8431L36.1538 33.2314V24.9255L72.3077 45.6942L65.0769 49.8431ZM21.6923 16.6117L28.9231 20.7686V29.0745L21.6923 24.9175V16.6117ZM21.6923 33.2314L28.9231 37.3883V70.6197L21.6923 74.7766V33.2314ZM21.6923 83.0745L28.9231 78.9175V87.2234L21.6923 91.3803V83.0745ZM86.7692 70.6117L36.1538 99.6862V91.3803L79.5385 66.4548L86.7692 70.6117ZM86.7692 54L79.5385 58.1569L72.3077 54L79.5385 49.8431L86.7692 54ZM79.5385 41.5372L36.1538 16.6117V8.30585L86.7692 37.3803L79.5385 41.5372Z" fill="#00E100"></path></svg>

<svg xmlns="http://www.w3.org/2000/svg" width="94" height="108" fill="none" viewBox="0 0 94 108"><path fill="#00e100" d="M94 33.231 36.154 0l-7.23 4.157v8.306l-7.232-4.157-7.23 4.157v8.306L7.23 16.612 0 20.769V87.23l7.23 4.157 7.231-4.157v8.306l7.231 4.157 7.231-4.157v8.306l7.23 4.157L94 74.769v-8.306l-7.23-4.157L94 58.149v-8.306l-7.23-4.157L94 41.53zM14.462 78.926 7.23 83.082V24.926l7.23 4.157zm21.692 4.148V74.77l28.923-16.612 7.23 4.157zM57.846 54 36.154 66.463V41.537zm7.23-4.157L36.155 33.231v-8.306l36.154 20.77zM21.693 16.612l7.231 4.157v8.306l-7.23-4.157zm0 16.62 7.231 4.156V70.62l-7.23 4.157zm0 49.843 7.231-4.157v8.305l-7.23 4.157zM86.77 70.612 36.154 99.686V91.38l43.384-24.925zm0-16.612-7.23 4.157L72.308 54l7.23-4.157zm-7.23-12.463L36.154 16.612V8.306L86.769 37.38z"/></svg>
